X:1
T:Bourre du p'tit coq
C:Gilles Pquignot - Danyle Besserer (Au gr des vents), fichier ABC par Bernard Loffet
L:1/8
Q:400
M:3/4
K:C
|: [DD,]A [zD,]D [zD,]A | [c2D,2] D,2 D,2 | [cD,]A [zD,]G [zD,]A | [E2C,2] C,2 C,2 | [DC,]A [zC,]D [zC,]A | \
 [d2D,2] D,2 D,2 | [dD,]c [AD,]c [AD,]G | [A2D,2] D,2 D,2 :|: [DD,]E [GG,]A [cD,]d | [e2C,2] C,2 C,2 | \
 [eC,]d [zC,]c [dC,]z | [A2D,2] D,2 D,2 | [DD,]E [GG,]A [cD,]d | [e2C,2] C,2 C,2 | [eC,]d [zC,]c [dC,]z | \
 [^f2D,2] D,2 D,2 :| \
Z:Created with TablEdit http://www.tabledit.com/ by Bernard Loffet
